icon/pk/eeg.svg

<svg viewBox="0 0 48 48" fill="none" xmlns="http://www.w3.org/2000/svg" height="1em" width="1em">
  <path d="M42 16V9C42 7.34315 40.6569 6 39 6H9C7.34315 6 6 7.34315 6 9V16" stroke="black" stroke-width="4" stroke-linecap="round" stroke-linejoin="round"/>
  <path d="M6 32V39C6 40.6569 7.34315 42 9 42H39C40.6569 42 42 40.6569 42 39V32" stroke="black" stroke-width="4" stroke-linecap="round" stroke-linejoin="round"/>
  <path d="M5 24H13.075L20 16L27 32L33.975 24H43" stroke="black" stroke-width="4" stroke-linecap="round" stroke-linejoin="round"/>
</svg>

<svg width="48" height="48" fill="none" xmlns="http://www.w3.org/2000/svg"><path d="M42 16V9a3 3 0 0 0-3-3H9a3 3 0 0 0-3 3v7M6 32v7a3 3 0 0 0 3 3h30a3 3 0 0 0 3-3v-7M5 24h8.075L20 16l7 16 6.975-8H43" stroke="#000" stroke-width="4" stroke-linecap="round" stroke-linejoin="round"/></svg>
